usr/share/icons/biglinux-icons-material-dark/symbolic/actions/format-justify-right.svg

<svg xmlns="http://www.w3.org/2000/svg" viewBox="0 0 16 16">
<defs id="defs3051">
<style id="current-color-scheme" type="text/css">
.ColorScheme-Contrast{color:#dedede}
</style>
</defs>
<path d="M2 2v1h12V2zm5 2v1h7V4zM4 7v1h10V7zm5 2v1h5V9zm-3 3v1h8v-1zm-4 1v1h2v-1z" class="ColorScheme-Contrast" style="fill:currentColor;fill-opacity:1;stroke:none"/>
</svg>

<svg xmlns="http://www.w3.org/2000/svg" viewBox="0 0 16 16">
  <defs id="defs3051">
    <style type="text/css" id="current-color-scheme">
      .ColorScheme-Text {
        color:#dedede;
      }
      </style>
  </defs>
 <path style="fill:currentColor;fill-opacity:1;stroke:none" 
       d="M 2 2 L 2 3 L 14 3 L 14 2 L 2 2 z M 7 4 L 7 5 L 14 5 L 14 4 L 7 4 z M 4 7 L 4 8 L 14 8 L 14 7 L 4 7 z M 9 9 L 9 10 L 14 10 L 14 9 L 9 9 z M 6 12 L 6 13 L 14 13 L 14 12 L 6 12 z M 2 13 L 2 14 L 4 14 L 4 13 L 2 13 z "
     class="ColorScheme-Text"
     />
</svg>
